assets/svg/fa-edit.svg

<svg xmlns="http://www.w3.org/2000/svg" width="100%" height="100%" viewBox="0 0 575 512"><path fill="currentColor" d="M402.3 344.9l32-32c5-5 13.7-1.5 13.7 5.7v145.4c0 26.5-21.5 48-48 48h-352c-26.5 0-48-21.5-48-48v-352c0-26.5 21.5-48 48-48h273.5c7.1 0 10.7 8.6 5.7 13.7l-32 32c-1.5 1.5-3.5 2.3-5.7 2.3h-241.5v352h352v-113.5c0-2.1 0.8-4.1 2.3-5.6zM558.9 143.1l-262.6 262.6-90.4 10c-26.2 2.9-48.5-19.2-45.6-45.6l10-90.4 262.6-262.6c22.9-22.9 59.9-22.9 82.7 0l43.2 43.2c22.9 22.9 22.9 60 0.1 82.8zM460.1 174l-58.1-58.1-185.8 185.9-7.3 65.3 65.3-7.3zM524.9 94.3l-43.2-43.2c-4.1-4.1-10.8-4.1-14.8 0l-30.9 30.9 58.1 58.1 30.9-30.9c4-4.2 4-10.8-0.1-14.9z" /></svg>

<svg xmlns="http://www.w3.org/2000/svg" width="100%" height="100%" viewBox="0 0 576 512"><path fill="currentColor" d="M402.3 344.9L434.3 312.9C439.3 307.9 448 311.4 448 318.6V464C448 490.5 426.5 512 400 512H48C21.5 512 0 490.5 0 464V112C0 85.5 21.5 64 48 64H321.5C328.6 64 332.2 72.6 327.2 77.7L295.2 109.7C293.7 111.2 291.7 112 289.5 112H48V464H400V350.5C400 348.4 400.8 346.4 402.3 344.9zM558.9 143.1L296.3 405.7 205.9 415.7C179.7 418.6 157.4 396.5 160.3 370.1L170.3 279.7 432.9 17.1C455.8-5.8 492.8-5.8 515.6 17.1L558.8 60.3C581.7 83.2 581.7 120.3 558.9 143.1zM460.1 174L402 115.9 216.2 301.8 208.9 367.1 274.2 359.8 460.1 174zM524.9 94.3L481.7 51.1C477.6 47 470.9 47 466.9 51.1L436 82 494.1 140.1 525 109.2C529 105 529 98.4 524.9 94.3z" /></svg>
